icons/capsule-fill.svg

<svg xmlns="http://www.w3.org/2000/svg" width="24" height="24" fill="none"><g clip-path="url(#a)"><g><path fill="#121212" d="M19.778 4.22197C22.121 6.56497 22.121 10.364 19.778 12.707L17.656 14.827L12.707 19.778C10.364 22.121 6.56497 22.121 4.22197 19.778C1.87897 17.435 1.87897 13.636 4.22197 11.293L11.292 4.22197C13.636 1.87897 17.435 1.87897 19.778 4.22197ZM14.828 14.828L9.17197 9.17197L5.63597 12.707C4.07397 14.269 4.07397 16.802 5.63597 18.364C7.19797 19.926 9.73097 19.926 11.293 18.364L14.828 14.828Z"/></g></g><defs><clipPath id="a"><rect width="24" height="24" fill="white"/></clipPath></defs></svg>

<svg width="24" height="24" fill="none" xmlns="http://www.w3.org/2000/svg"><g clip-path="url(#a)"><path d="M19.778 4.222a6 6 0 0 1 0 8.485l-2.122 2.12-4.949 4.951a6 6 0 0 1-8.485-8.485l7.07-7.071a6.001 6.001 0 0 1 8.486 0Zm-4.95 10.606L9.172 9.172l-3.536 3.535a4 4 0 0 0 5.657 5.657l3.535-3.536Z" /></g><defs><clipPath id="a"><path fill="#fff" d="M0 0h24v24H0z"/></clipPath></defs></svg>
